icons/svg/icons8/football.svg

<svg width="26" height="26" viewBox="0 0 26 26" fill="none" xmlns="http://www.w3.org/2000/svg">
<path d="M16.5 25.814C17.7774 25.814 18.813 24.7784 18.813 23.501C18.813 22.2236 17.7774 21.188 16.5 21.188C15.2226 21.188 14.187 22.2236 14.187 23.501C14.187 24.7784 15.2226 25.814 16.5 25.814Z" fill="#333333"/>
<path d="M15.5 4.81399C16.7774 4.81399 17.813 3.77842 17.813 2.50099C17.813 1.22355 16.7774 0.187988 15.5 0.187988C14.2226 0.187988 13.187 1.22355 13.187 2.50099C13.187 3.77842 14.2226 4.81399 15.5 4.81399Z" fill="#333333"/>
<path d="M16.4258 10.188L10.1698 24.438C10.1698 24.438 9.53782 26.134 8.50282 25.818C7.72282 25.58 8.27382 23.633 8.27382 23.633C8.27382 23.633 11.3518 14.617 11.0618 14.576C10.8608 14.548 8.41582 18.659 7.92782 19.406C7.22082 20.487 6.03782 19.685 6.11682 18.946C6.30082 17.205 7.55482 14.149 7.55482 14.149L10.2438 8.02401C10.2438 8.02401 4.84982 8.09101 3.36882 8.11301C1.81082 8.13501 1.55282 6.80501 3.28882 6.50701C5.30282 6.16101 11.3088 5.23801 11.3088 5.23801C11.3088 5.23801 12.2908 5.14201 13.0648 5.53901C13.7938 5.91301 16.0378 7.12701 17.0698 7.72101C17.9128 8.20701 20.2508 9.52202 20.2508 9.52202L22.9948 7.80301C22.9948 7.80301 23.5108 7.34901 23.9408 7.76501C24.4358 8.24401 23.9148 8.82101 23.3658 9.37401C22.8158 9.93001 21.3128 11.088 20.9188 11.437C20.7428 11.592 20.3208 11.902 19.5658 11.601C18.8108 11.3 16.4258 10.188 16.4258 10.188Z" fill="#333333"/>
</svg>

<?xml version="1.0" encoding="utf-8"?>
<!-- Generator: Adobe Illustrator 15.0.0, SVG Export Plug-In . SVG Version: 6.00 Build 0)  -->
<!DOCTYPE svg PUBLIC "-//W3C//DTD SVG 1.1//EN" "http://www.w3.org/Graphics/SVG/1.1/DTD/svg11.dtd">
<svg version="1.1" id="Layer_1" xmlns="http://www.w3.org/2000/svg" xmlns:xlink="http://www.w3.org/1999/xlink" x="0px" y="0px"
	 width="26px" height="26px" viewBox="0 0 26 26" enable-background="new 0 0 26 26" xml:space="preserve">
<rect fill="none" width="26" height="26"/>
<g>
	<circle fill="#333333" cx="16.5" cy="23.501" r="2.313"/>
</g>
<g>
	<circle fill="#333333" cx="15.5" cy="2.501" r="2.313"/>
</g>
<path fill="#333333" d="M16.426,10.188l-6.256,14.25c0,0-0.632,1.696-1.667,1.38c-0.78-0.238-0.229-2.185-0.229-2.185
	s3.078-9.016,2.788-9.057c-0.201-0.028-2.646,4.083-3.134,4.83c-0.707,1.081-1.89,0.279-1.811-0.46
	c0.184-1.741,1.438-4.797,1.438-4.797l2.689-6.125c0,0-5.394,0.067-6.875,0.089c-1.558,0.022-1.816-1.308-0.08-1.606
	c2.014-0.346,8.02-1.269,8.02-1.269s0.982-0.096,1.756,0.301c0.729,0.374,2.973,1.588,4.005,2.182
	c0.843,0.486,3.181,1.801,3.181,1.801l2.744-1.719c0,0,0.516-0.454,0.946-0.038c0.495,0.479-0.026,1.056-0.575,1.609
	c-0.55,0.556-2.053,1.714-2.447,2.063c-0.176,0.155-0.598,0.465-1.353,0.164C18.811,11.3,16.426,10.188,16.426,10.188z"/>
</svg>
